!!!cenid: 16xx:1791
!!!COM: Jarzębski, Adam
!!!COM-rismID: pe30017782
!!!CDT:
!!!CNT:
!!!GTL: Canzoni e Concerti
!!!OTL: 18. Chromatica
!!!PDT: 1627
!!!AGN:
!!!SMS-siglum: D-B
!!!SMS-shelfmark: Slg Bohn Ms.mus. 111
!!!SMS-shelfwork: 018 G
!!!SMS-variant:
!!!SMS-altvar:
!!!NIFC-rismSourceID: 1001062014
!!!NIFC-rismChildID: 1001062014
!!!NIFC-islandoraID:
!!!URL-pdf-islandora:
!!!URL-scan: https://digital.staatsbibliothek-berlin.de/werkansicht/?PPN=PPN1049147219
!!!ONB-nifc: UWAGA: Prima vox: s. 30-31, Seconda vox: s 90-91, Bassus sive Vox Tertia: s. 129, Basso continuo: s. 176-177. Uwaga: proszę wpisywać partie tylko występujące w danym koncercie i nazywać partie wg określeń podawanych przy danym utworze. Kody instr. dla humdrumowców podane zostaną na forum.
!!!AIN: 2 soprn 1 vox
!!!key: a
**kern	**kern	**kern	**kern
*part4	*part3	*part2	*part1
*staff4	*staff3	*staff2	*staff1
*I"Baſso Continúo.	*I"Tertia Vox	*I"Seconda Vox.	*I"Canto
*I'bc	*I'V III	*I'S II	*I'S I
*	*ICvox	*ICvox	*ICvox
*	*Ivox	*Isoprn	*Isoprn
*IGcont	*	*	*
*clefG2	*clefC4	*clefG2	*clefG2
*k[]	*k[]	*k[]	*k[]
*a:	*a:	*a:	*a:
*M2/1	*M2/1	*M2/1	*M2/1
*met(C|)	*met(C|)	*met(C|)	*met(C|)
=1-	=1-	=1-	=1-
!!LO:TX:t=P:problem: all\ right or middle	!	!	!
!LO:TX:a:t=Concerto. A. 3  Dúi Sopr&colon; è Baſso.	!LO:TX:b:t=Chromatica	!LO:TX:b:t=Chromatica.	!LO:TX:a:t=A. 3  Doi Sopr&colon; è Baſso.
!LO:TX:b:t=Chromatica.	!LO:TX:a:t=A. 3  Doi Sopran&colon; è Baſso.	!LO:TX:a:t=A. 3  Doi Sopr&colon; è Baſso.	!LO:TX:b:t=Chromatica.
4ee\	00r	1r	4ee\
8ee\L	.	.	8ee\L
8ee\J	.	.	8ee\J
4ee\	.	.	4ee\
4ee\	.	.	4ee\
4a/	.	4a/	1cc#X
8a/L	.	8a/L	.
8a/J	.	8a/J	.
4a/	.	4a/	.
!LO:TX:t=P:problem:kreska pseudotaktowa	!	!	!
4a/	.	4a/	.
=2-	=2-	=2-	=2-
2e/	.	2e/	8r
.	.	.	8ee\L
.	.	.	16ee\L
.	.	.	16ff\
.	.	.	16ee\
.	.	.	16dd\JJ
*	*	*	*2\right
!	!	!	!LO:TX:t=P:problem:kreska pseudotaktowa
2a/	.	8r	2cc#X\
.	.	8a/L	.
.	.	16a/L	.
.	.	16b/	.
.	.	16a/	.
!	!	!LO:TX:t=P:problem:kreska pseudotaktowa	!
.	.	16g/JJ	.
*clefC4	*	*	*
2D/	.	2f#X/	8r
.	.	.	8aa\L
.	.	.	16aa\L
.	.	.	16bb-X\
.	.	.	16aa\
.	.	.	16gg\JJ
!	!	!	!LO:TX:t=P:problem:kreska pseudotaktowa
*2\right	*	*	*
2d\	.	8r	2ff#X\
.	.	8dd\L	.
.	.	16dd\L	.
.	.	16ee\	.
.	.	16dd\	.
!	!	!LO:TX:t=P:problem:kreska pseudotaktowa	!
.	.	16cc\JJ	.
=3-	=3-	=3-	=3-
2G/	0r	2b/	8r
.	.	.	8gg\
.	.	.	16gg\LL
.	.	.	16aa\
.	.	.	16gg\
.	.	.	16ffny\JJ
!	!	!	!LO:TX:t=P:problem:kreska pseudotaktowa
!	!	!	!
2c\	.	8r	2ee\
.	.	8cc\L	.
.	.	16cc\L	.
.	.	16dd\	.
.	.	16cc\	.
!	!	!LO:TX:t=P:problem:kreska pseudotaktowa	!
.	.	16b\JJ	.
*	*	*	*custos:ee
!	!	!	!LO:LB:g=original
2.A/	.	8a/L	8r
.	.	8cc/J	8ee\
.	.	16cc\LL	16ee\LL
.	.	16dd\	16ff\
.	.	16cc\	16ee\
!	!	!	!
.	.	16b\JJ	16dd\JJ
*	*	*custos:a	*
!	!	!LO:LB:g=original	!
.	.	4a/	4ccny\
!LO:TX:t=P:problem:kreska pseudotaktowa	!	!	!
4c\	.	4.ee\	4.gg\
=4-	=4-	=4-	=4-
4.C/	1r	.	.
.	.	8dd\	8ff\
.	.	8cc\L	8ee\L
8D/	.	16b\L	16dd\L
.	.	16a\JJ	16cc\JJ
2E/	.	4a/	4b/
!	!	!	!LO:TX:t=P:problem:kreska pseudotaktowa
.	.	4g#X/	4b/
!	!	!LO:TX:t=P:problem:kreska pseudotaktowa	!LO:TX:t=P:problem:mixed beam
4A/	4A/	1a	8a/L
.	.	.	8ee\J
8A/L	8A/L	.	16ee\LL
.	.	.	16ff\
8A/J	8A/J	.	16ee\
.	.	.	16dd\JJ
4A/	4A/	.	2cc#X\
4A/	4A/	.	.
=5-	=5-	=5-	=5-
2E/	2E/	8r	00r
.	.	8ee\L	.
.	.	16ee\L	.
.	.	16ff\	.
.	.	16ee\	.
.	.	16dd\JJ	.
*	*	*2\right	*
!	!	!LO:TX:t=P:problem:kreska pseudotaktowa	!
*	*	*	*
2A/	8r	2cc#X\	.
.	8A/L	.	.
.	16A/L	.	.
.	16B/	.	.
.	16A/	.	.
!	!LO:TX:t=P:problem:kreska pseudotaktowa	!	!
.	16G/JJ	.	.
!LO:TX:t=P:problem:kreska pseudotaktowa	!	!	!
1D	2F#X/	8r	.
.	.	8a/L	.
.	.	16a/L	.
.	.	16b/	.
.	.	16a/	.
.	.	16gny/JJ	.
!	!	!LO:TX:t=P:problem:kreska pseudotaktowa	!
.	8r	2f#X/	.
.	8d\L	.	.
.	16d\L	.	.
.	16e\	.	.
.	16d\	.	.
!	!LO:TX:t=P:problem:kreska pseudotaktowa	!	!
.	16c\JJ	.	.
=6-	=6-	=6-	=6-
2G/	2B\	8r	.
.	.	8g/L	.
.	.	16g/L	.
.	.	16a/	.
.	.	16g/	.
.	.	16fny/JJ	.
!	!	!LO:TX:t=P:problem:kreska pseudotaktowa	!
!	!	!	!
2c\	8r	2e/	.
.	8c\L	.	.
.	16c\L	.	.
.	16d\	.	.
.	16c\	.	.
!	!LO:TX:t=P:problem:kreska pseudotaktowa	!	!
.	16B\JJ	.	.
*	*	*custos:ee	*
!	!	!LO:LB:g=original	!
2A/	8A\L	8r	.
.	8c\J	8ee\L	.
.	16c\LL	16ee\L	.
.	16d\	16ff\	.
.	16c\	16ee\	.
.	16B\JJ	16dd\JJ	.
!	!	!	!
2A/	4A/	4ccny\	.
!	!LO:TX:t=P:problem:kreska pseudotaktowa:między nutą a kropką	!	!
.	4.c\	4.ee\	.
*custos:E	*	*	*
!LO:LB:g=original	!	!	!
=7-	=7-	=7-	=7-
1E	.	.	4ee\
!	!	!	!
.	8B\	8dd\	.
*	*custos:A	*	*
!	!LO:LB:g=original	!	!
.	4A/	4cc\	8ee\L
.	.	.	8ee\J
!	!	!LO:TX:t=P:problem:kreska pseudotaktowa	!
.	4A/	2b/	4ee\
.	4G#X/	.	4ee\
!	!	!	!LO:TX:t=P:problem:kreska pseudotaktowa
!	!	!	!
1A	2A/	4r	1cc#X
.	.	8a/L	.
.	.	8a/J	.
.	2r	4a/	.
!	!	!LO:TX:t=P:problem:kreska pseudotaktowa	!
.	.	4a/	.
*	*	*	*custos:ee
!	!	!	!LO:LB:g=original
=8-	=8-	=8-	=8-
4A/	4A/	2e/	8r
.	.	.	8ee\
8A/L	8A/L	.	16ee\LL
.	.	.	16ff\
8A/J	8A/J	.	16ee\
.	.	.	16dd\JJ
!	!	!LO:TX:t=P:problem:kreska pseudotaktowa	!LO:TX:t=P:problem:kreska pseudotaktowa
4A/	4A/	2r	2cc#X\
!	!LO:TX:t=P:problem:kreska pseudotaktowa	!	!
4A/	4A/	.	.
2E/	2E/	8r	2r
.	.	8ee\L	.
.	.	16ee\L	.
.	.	16ff\	.
.	.	16ee\	.
.	.	16dd\JJ	.
!LO:TX:t=P:problem:kreska pseudotaktowa	!	!LO:TX:t=P:problem:kreska pseudotaktowa	!
2A/	2A/	2cc#X\	8r
.	.	.	8aa\
.	.	.	16aa\LL
.	.	.	16bb-X\
.	.	.	16aa\
!	!	!	!LO:TX:t=P:problem:kreska pseudotaktowa
.	.	.	16gg\JJ
=9-	=9-	=9-	=9-
2D/	2D/	8r	8ff#X\L
.	.	8dd\L	16dd\L
.	.	.	16ee\
!	!	!	!
.	.	8dd\	16ff#Xi\
.	.	.	16gg\
.	.	8ccny\J	16aa\
!	!	!	!
.	.	.	16ff#Xi\JJ
!	!	!	!LO:TX:t=P:problem:kreska pseudotaktowa
2G/	8r	8b/L	2gg\
.	8Gny/L	16g/L	.
.	.	16a/JJ	.
.	8G/	16b\LL	.
.	.	16cc\	.
!	!LO:TX:t=P:problem:kreska pseudotaktowa	!	!
.	8Fny/J	16dd\	.
!	!	!LO:TX:t=P:problem:kreska pseudotaktowa	!
!	!	!	!
.	.	16b\JJ	.
*	*	*custos:cc	*
!	!	!LO:LB:g=original	!
2C/	8E/L	4.cc\	2r
.	16C/L	.	.
.	16D/JJ	.	.
.	16E/LL	.	.
.	16F/	.	.
.	16G/	8b/	.
.	16E/JJ	.	.
2F/	2F/	2a/	8r
.	.	.	8aa\
.	.	.	16aa\LL
.	.	.	16bb-X\
.	.	.	16aa\
!	!	!	!LO:TX:t=P:problem:kreska pseudotaktowa
.	.	.	16gg\JJ
=10-	=10-	=10-	=10-
2D/	4r	2a/	2ff#X\
.	4D/	.	.
!	!LO:TX:t=P:problem:kreska pseudotaktowa	!LO:TX:t=P:problem:kreska pseudotaktowa	!
2E/	2E/	2g#X/	8r
.	.	.	8ee\
.	.	.	16ee\LL
.	.	.	16ff#\
.	.	.	16ee\
!	!	!	!
.	.	.	16dd\JJ
*	*	*	*custos:cc
!	!	!LO:TX:t=P:problem:mixed beam	!LO:PB:g=original
2.A/	2A/	8a/L	2cc#X\
.	.	8ee\J	.
.	.	16ee\LL	.
.	.	16ff\	.
.	.	16ee\	.
.	.	16dd\JJ	.
!	!	!LO:TX:t=P:problem:kreska pseudotaktowa	!
.	4r	2cc#X\	8r
.	.	.	8aa\L
!LO:TX:t=P:problem:kreska pseudotaktowa	!	!	!
4A/	4A/	.	16aa\L
.	.	.	16bb-X\
.	.	.	16aa\
!	!	!	!LO:TX:t=P:problem:kreska pseudotaktowa
.	.	.	16gg\JJ
=11-	=11-	=11-	=11-
2D/	2D/	8r	2ff#X\
.	.	8dd\L	.
.	.	16dd\L	.
.	.	16ee\	.
.	.	16dd\	.
.	.	16ccny\JJ	.
2E/	2E/	8b/L	8r
.	.	8cc/J	8ee\
.	.	4b/	16ee\LL
.	.	.	16ff#\
.	.	.	16ee\
.	.	.	16dd\JJ
!LO:TX:t=P:problem:kreska pseudotaktowa	!	!LO:TX:t=P:problem:kreska pseudotaktowa	!LO:TX:t=P:problem:kreska pseudotaktowa
1A	1A	1a	1cc#X
=12-	=12-	=12-	=12-
*M3/2	*M3/2	*M3/2	*M3/2
*met(3)	*met(3)	*met(3)	*met(3)
2A/	2A/	2cc#X\	2ee\
*	*2\right	*	*
2d\	2d\	2dd\	2ffny\
!	!	!	!
2c\	2c\	2ee\	2gg\
*	*custos:f	*	*
!	!LO:LB:g=original	!	!
=13-	=13-	=13-	=13-
1f	1f	1ff	1aa
!	!	!	!
2f\	2f\	2ff\	2aa\
*	*	*custos:ee	*
!	!	!LO:PB:g=original	!
=14-	=14-	=14-	=14-
1c	1c	1ee	1gg
2d\	2d\	2dd\	2ff\
=15-	=15-	=15-	=15-
1.A	1.A	1cc#X	1ee
!	!	!LO:TX:t=P:problem:kreska pseudotaktowa	!
.	.	2r	2r
=16-	=16-	=16-	=16-
2AA/	2AA/	2c#X/	2e/
2D/	2D/	2d/	2f/
!	!	!	!
2C/	2C/	2e/	2g/
*	*	*	*custos:a
!	!	!	!LO:LB:g=original
=17-	=17-	=17-	=17-
1F	1F	1f	1a
!	!	!	!
2F/	2F/	2f/	2a/
*custos:C	*	*	*
!LO:LB:g=original	!	!	!
=18-	=18-	=18-	=18-
1C	1C	1e	1g
2D/	2D/	2d/	2f/
=19-	=19-	=19-	=19-
!LO:TX:t=P:problem:kreska pseudotaktowa	!	!	!
1.A	1A	1c#X	1e
!	!	!LO:TX:t=P:problem:kreska pseudotaktowa	!
.	2r	2r	2r
=20-	=20-	=20-	=20-
2A/	2A/	2cc#X\	2ee\
2d\	2d\	2dd\	2ff\
2c\	2c\	2ee\	2gg\
=21-	=21-	=21-	=21-
1f	1f	1ff	1aa
2f\	2f\	2ff\	2aa\
=22-	=22-	=22-	=22-
1c	1c	1ee	1gg
2d\	2d\	2dd\	2ff\
=23-	=23-	=23-	=23-
1A	1A	1cc#X	1ee
2A/	2A/	2cc#\	2ee\
=24-	=24-	=24-	=24-
!LO:TX:t=P:problem:kreska pseudotaktowa	!	!	!
1.D	1.D	1dd	1dd
.	.	2r	2r
=25-	=25-	=25-	=25-
!	!	!	!
2A/	2A/	2cc#Xi\	2ee\
2d\	2d\	2dd\	2ff\
!	!	!	!
2c\	2c\	2ee\	2gg\
*	*	*custos:ff	*
!	!	!LO:LB:g=original	!
=26-	=26-	=26-	=26-
1f	1f	1ff	1aa
!	!	!	!
2f\	2f\	2ff\	2aa\
*	*custos:c	*	*
!	!LO:LB:g=original	!	!
=27-	=27-	=27-	=27-
1c	1c	1ee	1gg
2c\	2d\	2dd\	2ff\
=28-	=28-	=28-	=28-
1A	1A	1cc#X	1ee
!LO:TX:t=P:problem:kreska pseudotaktowa	!	!	!
2A/	2A/	2cc#\	2ee\
*	*	*	*custos:dd
!	!	!	!LO:LB:g=original
=29-	=29-	=29-	=29-
*M2/1	*M2/1	*M2/1	*M2/1
*met(C|)	*met(C|)	*met(C|)	*met(C|)
2D/	2d\	2dd\	2dd\
2D/	2D/	2ff#X\	2.dd\
2.E/	2.E/	1ee	.
.	.	.	4ccny\
.	.	.	1cc
!LO:TX:t=P:problem:kreska pseudotaktowa	!	!	!
4F/	4F/	.	.
=30-	=30-	=30-	=30-
1G	1G	0dd	.
.	.	.	4b/
.	.	.	4a/
2G/	2r	.	2b/
1G/	1G/	.	2b-X/
=31-	=31-	=31-	=31-
.	.	2r	0a
!LO:TX:b:t=P:problem:# below	!	!	!
4F#X/	4F#X/	1dd	.
4E/	4E/	.	.
2F#X/	2F#X/	.	.
!LO:TX:t=P:problem:kreska pseudotaktowa	!	!	!
!LO:N:acc=-	!LO:N:acc=-	!	!
2Fn/	2Fn/	4ccny\	.
.	.	4b/	.
=32-	=32-	=32-	=32-
2E#X/	2E#X/	2cc\	2r
!	!	!	!
!LO:N:acc=-	!LO:N:acc=-	!	!
2En/	2En/	2cc#X\	1gg
*custos:D	*	*	*
!LO:PB:g=original	!	!	!
1D	1D	0dd	.
!	!	!	!
.	.	.	4ff#Xi\
.	.	.	4ee\
=33-	=33-	=33-	=33-
!	!	!	!
2D/	2r	.	2ff#Xi\
!	!	!	!LO:N:acc=-
1d	1d	.	2ffn\
.	.	1a	1.ee
4c#X\	4c#X\	.	.
!LO:TX:t=P:problem:kreska pseudotaktowa	!	!	!
4B\	4B\	.	.
=34-	=34-	=34-	=34-
2c#X\	2c#X\	1r	.
!LO:N:acc=-	!LO:N:acc=-	!	!
1cn	1cn	.	2ee\
.	.	2r	1dd
4B#X\	4B\	2.gg\	.
4A/	4A/	.	.
=35-	=35-	=35-	=35-
2Bny\	2B\	.	2r
.	.	4ff#X\	.
!LO:TX:t=P:problem:kreska pseudotaktowa	!	!LO:N:acc=-	!
2B-X\	2B-X\	4ffn\	1dd
.	.	8ee\L	.
.	.	8dd\J	.
*	*custos:A	*	*
!	!LO:LB:g=original	!	!
0A	0A	2.ee\	.
*	*	*	*custos:cc
!	!	!	!LO:LB:g=original
.	.	.	4cc#X\
!	!	!	!
.	.	4dd\	4bny/
*	*	*custos:ee	*
!	!	!LO:LB:g=original	!
=36-	=36-	=36-	=36-
.	.	2.ee\	2cc#X\
!	!	!	!LO:N:acc=-
.	.	.	2ccn\
.	.	4ff\	.
2G/	2r	1gg	2b/
1G/	1G/	.	2b-X/
=37-	=37-	=37-	=37-
.	.	2r	0a
4F#X/	4F#X/	1dd	.
!LO:TX:t=P:problem:kreska pseudotaktowa	!	!	!
4E/	4E/	.	.
2F#X/	2F#X/	.	.
!LO:N:acc=-	!LO:N:acc=-	!	!
2Fn/	2Fn/	4ccny\	.
.	.	4b/	.
=38-	=38-	=38-	=38-
2E#X/	2E/	2cc\	2r
!LO:TX:t=P:problem:kreska pseudotaktowa	!	!	!
!LO:N:acc=-	!LO:N:acc=-	!	!
2En/	2E-X/	2cc#X\	1gg
1D	1D	0dd	.
.	.	.	4ff#X\
.	.	.	4ee\
=39-	=39-	=39-	=39-
2D/	2r	.	2ff#X\
!	!	!	!LO:N:acc=-
1d	1d	.	2ffn\
.	.	2r	0ee
4c#X\	4c#X\	1a/	.
!LO:TX:t=P:problem:kreska pseudotaktowa	!	!	!
4Bny\	4Bny\	.	.
=40-	=40-	=40-	=40-
2c#X\	2c#X\	.	.
!	!	!	!
!LO:N:acc=-	!LO:N:acc=-	!	!
2cn\	2cn\	4gny/	.
.	.	4f/	.
*custos:B	*	*	*
!LO:LB:g=original	!	!	!
2B\	2B\	2g/	2r
2B-X\	2B-X\	2g#X/	1dd\
=41-	=41-	=41-	=41-
1A	1A	2a/	.
.	.	1ee	4cc#X\
.	.	.	4bny/
2.A/	2.A/	.	2cc#X\
!	!	!	!
!	!	!	!LO:N:acc=-
.	.	2ee\	2ccn\
4G/	4G/	.	.
*	*	*	*custos:dd
!	!	!	!LO:LB:g=original
=42-	=42-	=42-	=42-
2F#X/	2F#X/	1dd	2dd\
1G	1G	.	2b-X/
.	.	2r	1.a
4F#X/	4F#X/	2.dd\	.
!LO:TX:t=P:problem:kreska pseudotaktowa	!	!	!
4E/	4Eny/	.	.
=43-	=43-	=43-	=43-
2F#X/	2F#X/	.	.
.	.	4ccny\	.
!	!	!	!
2G/	2G/	2b/	1g
*	*custos:E	*	*
!	!LO:LB:g=original	!	!
2E/	2E/	2cc\	.
!LO:TX:t=P:problem:kreska pseudotaktowa	!	!	!
2E-X/	2E-X/	2cc#X\	1gg\
=44-	=44-	=44-	=44-
1.D	1.D	2dd\	.
.	.	2.a/	4ff#X\
.	.	.	4ee\
!	!	!	!LO:N:acc=-
.	.	.	2ffn\
.	.	4gny/	.
!	!	!LO:TX:b:t=P:problem:# below	!
!	!	!	!
2D/	2D/	2f#X/	2.dd\
*	*	*custos:g	*
!	!	!LO:LB:g=original	!
=45-	=45-	=45-	=45-
2.E/	2.Eny/	2g/	.
.	.	.	4cc\
.	.	2e/	1cc
4Fny/	4Fny/	.	.
2.G/	2.G/	1d	.
.	.	.	2bny/
!LO:TX:t=P:problem:kreska pseudotaktowa	!	!	!
4F/	4F/	.	.
=46-	=46-	=46-	=46-
2E/	2E/	2r	2.cc\
1F	1F	1a	.
.	.	.	4b/
.	.	.	2a/
4E/	4E/	4g/	1dd\
!LO:TX:t=P:problem:kreska pseudotaktowa	!	!	!
4D/	4D/	4fny/	.
=47-	=47-	=47-	=47-
!	!	!LO:TX:b:t=P:problem:# below	!
0E	0.E	2g#X/	.
.	.	2a/	4cc\
.	.	.	4b/
.	.	2e/	2.cc\
.	.	1a/	.
.	.	.	8b/L
.	.	.	8a/J
=48-	=48-	=48-	=48-
1E	.	.	2b/
.	.	2g#X/	2b/
!LO:TX:t=P:problem:kreska pseudotaktowa	!	!	!
1A	1A	1a	1a
*	*	*	*custos:ee
!	!	!	!LO:LB:g=original
=49-	=49-	=49-	=49-
*M3/2	*M3/2	*M3/2	*M3/2
*met(3)	*met(3)	*met(3)	*met(3)
2A/	2A/	2cc#X\	2ee\
2d\	2d\	2dd\	2ff\
2c\	2c\	2ee\	2gg\
=50-	=50-	=50-	=50-
1f	1f	1ff	1aa
2f\	2f\	2ff\	2aa\
=51-	=51-	=51-	=51-
1c	1c	1ee	1gg
!	!	!	!
2d\	2d\	2dd\	2ff\
*custos:A	*	*	*
!LO:LB:g=original	!	!	!
=52-	=52-	=52-	=52-
1.A	1A	1cc#X	1ee
.	2r	2r	2r
=53-	=53-	=53-	=53-
2AA/	2AA/	2c#X/	2e/
2D/	2D/	2d/	2f/
!	!	!	!
2C/	2C/	2e/	2g/
*	*custos:F	*	*
!	!LO:LB:g=original	!	!
=54-	=54-	=54-	=54-
1F	1F	1f	1a
!	!	!	!
2F/	2F/	2f/	2a/
*	*	*custos:e	*
!	!	!LO:LB:g=original	!
=55-	=55-	=55-	=55-
1C	1C	1e	1g
2D/	2D/	2d/	2f/
=56-	=56-	=56-	=56-
!LO:TX:t=P:problem:kreska pseudotaktowa	!	!	!
1.A	1AA	1c#X	1e
.	2r	2r	2r
=57-	=57-	=57-	=57-
!	!	!	!
2A/	2A/	2cc#Xi\	2ee\
2d\	2d\	2dd\	2ff\
2c\	2c\	2ee\	2gg\
=58-	=58-	=58-	=58-
1f	1f	1ff	1aa
!	!	!	!
2f\	2f\	2ff\	2aa\
*	*	*	*custos:gg
!	!	!	!LO:LB:g=original
=59-	=59-	=59-	=59-
1c	1c	1ee	1gg
2d\	2d\	2dd\	2ff\
=60-	=60-	=60-	=60-
1A	1A	1cc#X	1ee
2A/	2A/	2cc#\	2ee\
=61-	=61-	=61-	=61-
!LO:TX:t=P:problem:kreska pseudotaktowa	!	!	!
1.D	1D	1dd	1dd
.	2r	2r	2r
=62-	=62-	=62-	=62-
!	!	!	!
2A/	2A/	2cc#Xi\	2ee\
2d\	2d\	2dd\	2ff\
2c\	2c\	2ee\	2gg\
=63-	=63-	=63-	=63-
1f	1f	1ff	1aa
!LO:TX:t=P:problem:kreska pseudotaktowa	!	!	!
2f\	2f\	2ff\	2aa\
=64-	=64-	=64-	=64-
1c	1c	1ee	1gg
2d\	2d\	2dd\	2ff\
=65-	=65-	=65-	=65-
1A	1A	1cc#X	1ee
!LO:TX:t=P:problem:kreska pseudotaktowa	!	!	!
2A/	2A/	2cc#\	2ee\
=66-	=66-	=66-	=66-
1D	1D	1dd	1ff
!	!	!	!
2A/	2A/	2cc#\	4.ee\
.	.	.	8aa\
*	*	*custos:b	*
!	!	!LO:LB:g=original	!
=67-	=67-	=67-	=67-
!LO:TX:t=P:problem:kreska pseudotaktowa	!	!	!
1.E	1E	1b	1gg#X
!	!	!	!
.	2r	2r	2r
*	*custos:E	*	*
!	!LO:LB:g=original	!	!
=68-	=68-	=68-	=68-
2E/	2E/	2g#X/	2b/
2A/	2A/	2a/	2cc\
!	!	!	!
2G/	2G/	2b/	2dd\
*custos:c	*	*	*
!LO:LB:g=original	!	!	!
=69-	=69-	=69-	=69-
1c	1c	1ccny	1ee
2c\	2c\	2cc\	2ee\
=70-	=70-	=70-	=70-
1G	1G	1b	1dd
!	!	!	!
2A/	2A/	2a/	2cc\
*	*	*	*custos:b
!	!	!	!LO:LB:g=original
=71-	=71-	=71-	=71-
!LO:TX:t=P:problem:kreska pseudotaktowa	!	!	!
1.E	1e	1g#X	1b
.	2e\	2g#/	2b/
=72-	=72-	=72-	=72-
1.A	1A	1a	1a
.	2r	2r	2r
=73-	=73-	=73-	=73-
2E/	2E/	2g#X/	2b/
2A/	2A/	2a/	2cc\
2G/	2G/	2b/	2dd\
=74-	=74-	=74-	=74-
1c	1c	1cc	1ee
2c\	2c\	2cc\	2ee\
=75-	=75-	=75-	=75-
1G	1G	1b	1dd
2A/	2A/	2a/	2cc\
=76-	=76-	=76-	=76-
1E	1E	1g#X	1b
!LO:TX:t=P:problem:kreska pseudotaktowa	!	!	!
2E/	2E/	2g#/	2b/
=77-	=77-	=77-	=77-
*M2/1	*M2/1	*M2/1	*M2/1
*met(C|)	*met(C|)	*met(C|)	*met(C|)
1A	1AA	1a	1a
*clefG2	*	*	*
!	!	!	!
4ee\	00r	1r	4ee\
8ee\L	.	.	8ee\L
8ee\J	.	.	8ee\J
4ee\	.	.	4ee\
!LO:TX:t=P:problem:kreska pseudotaktowa	!	!	!
4ee\	.	.	4ee\
*	*	*custos:a	*
!	!	!LO:LB:g=original	!
=78-	=78-	=78-	=78-
!	!	!	!LO:TX:t=P:problem:kreska pseudotaktowa
4a/	.	4a/	1cc#X
8a/L	.	8a/L	.
8a/J	.	8a/J	.
4a/	.	4a/	.
!	!	!LO:TX:t=P:problem:kreska pseudotaktowa	!
4a/	.	4a/	.
2e/	.	2e/	8r
.	.	.	8ee\
.	.	.	16ee\LL
.	.	.	16ff\
.	.	.	16ee\
.	.	.	16dd\JJ
!	!	!	!LO:TX:t=P:problem:kreska pseudotaktowa
!	!	!	!
2a/	.	8r	2cc#X\
.	.	8a/	.
.	.	16a/LL	.
.	.	16b/	.
.	.	16a/	.
!	!	!LO:TX:t=P:problem:kreska pseudotaktowa	!
.	.	16gny/JJ	.
*	*	*	*custos:aa
!	!	!	!LO:LB:g=original
=79-	=79-	=79-	=79-
2d/	.	2f#X/	8r
.	.	.	8aa\
.	.	.	16aa\LL
.	.	.	16bb-X\
.	.	.	16aa\
.	.	.	16gg\JJ
!	!	!	!LO:TX:t=P:problem:kreska pseudotaktowa
2d/	.	8r	2ff#X\
.	.	8dd\	.
.	.	16dd\LL	.
.	.	16ee\	.
.	.	16dd\	.
!	!	!LO:TX:t=P:problem:kreska pseudotaktowa	!
.	.	16cc\JJ	.
*	*	*	*
!	!	!	!
*clefC4	*	*	*
*custos:G	*	*	*
!LO:LB:g=original	!	!	!
2G/	0r	2b/	8r
.	.	.	8gg\
.	.	.	16gg\LL
.	.	.	16aa\
.	.	.	16gg\
.	.	.	16ff#\JJ
!LO:TX:t=P:problem:kreska pseudotaktowa	!	!	!LO:TX:t=P:problem:kreska pseudotaktowa
2c\	.	8r	2ee\
.	.	8cc\	.
.	.	16cc\LL	.
.	.	16dd\	.
.	.	16cc\	.
!	!	!LO:TX:t=P:problem:kreska pseudotaktowa	!
.	.	16b\JJ	.
=80-	=80-	=80-	=80-
2.A/	.	8a/L	8r
.	.	8cc/J	8ee\
.	.	16cc\LL	16ee\LL
.	.	16dd\	16ffny\
.	.	16cc\	16ee\
.	.	16b\JJ	16dd\JJ
.	.	4a/	4ccny\
4c\	.	4.ee\	4.gg\
4.C/	1r	.	.
.	.	8dd\	8ff\
.	.	8cc\L	8ee\L
8D/	.	16b\L	16dd\L
!	!	!	!
.	.	16a\JJ	16cc\JJ
*	*	*custos:a	*
!LO:TX:t=P:problem:kreska pseudotaktowa	!	!LO:LB:g=original	!LO:N:vis=8b/L
2E/	.	4a/	4b/L
!	!	!	!LO:N:vis=8b/J
!	!	!LO:TX:t=P:problem:kreska pseudotaktowa	!LO:TX:t=P:problem:kreska pseudotaktowa
.	.	4g#X/	4b/J
=81-	=81-	=81-	=81-
!	!	!	!LO:TX:t=P:problem:mixed beam
4A/	4A/	1a	8a/L
.	.	.	8ee\J
8A/L	8A/L	.	16ee\LL
.	.	.	16ff\
8A/J	8A/J	.	16ee\
.	.	.	16dd\JJ
4A/	4A/	.	2cc#X\
!	!	!	!
4A/	4A/	.	.
*	*custos:E	*	*
!	!LO:LB:g=original	!	!
2E/	2E/	8r	00r
.	.	8ee\	.
.	.	16ee\LL	.
.	.	16ff\	.
.	.	16ee\	.
.	.	16dd\JJ	.
!LO:TX:t=P:problem:kreska pseudotaktowa	!	!LO:TX:t=P:problem:kreska pseudotaktowa	!
2A/	8r	2cc#X\	.
.	8A/	.	.
.	16A/LL	.	.
.	16Bny/	.	.
.	16A/	.	.
!	!LO:TX:t=P:problem:kreska pseudotaktowa	!	!
.	16G/JJ	.	.
=82-	=82-	=82-	=82-
1D	2F#X/	8r	.
.	.	8a/	.
.	.	16a/LL	.
.	.	16b/	.
.	.	16a/	.
.	.	16gny/JJ	.
!	!	!LO:TX:t=P:problem:kreska pseudotaktowa	!
.	8r	2f#X/	.
.	8d\L	.	.
.	16d\L	.	.
.	16e\	.	.
.	16d\	.	.
!	!LO:TX:t=P:problem:kreska pseudotaktowa	!	!
.	16c\JJ	.	.
2G/	2B\	8r	.
.	.	8g/	.
.	.	16g/LL	.
.	.	16a/	.
.	.	16g/	.
.	.	16f#/JJ	.
!LO:TX:t=P:problem:kreska pseudotaktowa	!	!LO:TX:t=P:problem:kreska pseudotaktowa	!
2c\	8r	2e/	.
.	8c\L	.	.
.	16c\L	.	.
.	16d\	.	.
.	16c\	.	.
!	!LO:TX:t=P:problem:kreska pseudotaktowa	!	!
.	16B\JJ	.	.
=83-	=83-	=83-	=83-
!	!	!	!
1A	8A\L	8r	.
.	8c\	8ee\	.
.	16c\L	16ee\LL	.
.	16d\	16ff\	.
.	16c\	16ee\	.
.	16B\JJ	16dd\JJ	.
.	4A/	4ccny\	.
.	4.c\	4.ee\	.
*	*	*	*custos:ee
!	!	!	!LO:LB:g=original
1E	.	.	4ee\
.	8B\	8dd\	.
.	4A/	4cc\	8ee\L
.	.	.	8ee\J
!	!	!	!
.	4A/	2b/	4ee\
!	!LO:TX:t=P:problem:kreska pseudotaktowa	!	!
.	4G#X/	.	4ee\
*	*	*custos:a	*
!	!	!LO:LB:g=original	!
=84-	=84-	=84-	=84-
1A	2A/	4r	1cc#X
.	.	8a/L	.
.	.	8a/J	.
!	!	!	!
.	2r	4a/	.
.	.	4a/	.
*	*custos:A	*	*
!	!LO:LB:g=original	!	!
4A/	4A/	2e/	8r
.	.	.	8ee\
8A/L	8A/L	.	16ee\LL
.	.	.	16ff\
8A/J	8A/J	.	16ee\
.	.	.	16dd\JJ
!	!	!LO:TX:t=P:problem:kreska pseudotaktowa	!LO:TX:t=P:problem:kreska pseudotaktowa
4A/	4A/	2r	2cc#X\
!LO:TX:t=P:problem:kreska pseudotaktowa	!	!	!
4A/	4A/	.	.
=85-	=85-	=85-	=85-
2E/	2E/	8r	2r
.	.	8ee\	.
.	.	16ee\LL	.
.	.	16ff\	.
.	.	16ee\	.
.	.	16dd\JJ	.
!	!	!LO:TX:t=P:problem:kreska pseudotaktowa	!
2A/	2A/	2cc#X\	8r
.	.	.	8aa\
.	.	.	16aa\LL
.	.	.	16bb-X\
.	.	.	16aa\
!	!	!	!LO:TX:t=P:problem:kreska pseudotaktowa
.	.	.	16gg\JJ
2D/	2D/	8r	8ff#X\L
.	.	8dd\L	16dd\L
.	.	.	16ee\JJ
!	!	!	!
.	.	8dd\	16ff#Xi\LL
.	.	.	16gg\
.	.	8cc#\J	16aa\
!	!	!	!
.	.	.	16ff#Xi\JJ
!LO:TX:t=P:problem:kreska pseudotaktowa	!	!	!LO:TX:t=P:problem:kreska pseudotaktowa
2G/	8r	8b/L	2gg\
.	8Gny/L	16g/L	.
.	.	16a/	.
.	8G/	16b/	.
.	.	16cc#/	.
!	!LO:TX:t=P:problem:kreska pseudotaktowa	!	!
.	8Fny/J	16dd/	.
!	!	!LO:TX:t=P:problem:kreska pseudotaktowa	!
.	.	16b/JJ	.
=86-	=86-	=86-	=86-
2C/	8E/L	4.ccny\	2r
.	16C/L	.	.
.	16D/	.	.
.	16E/	.	.
.	16F/	.	.
.	16G/	8b/	.
.	16E/JJ	.	.
!	!	!	!
2F/	2F/	1a	8r
.	.	.	8aa\
.	.	.	16aa\LL
.	.	.	16bb-X\
.	.	.	16aa\
!	!	!	!LO:TX:t=P:problem:kreska pseudotaktowa
.	.	.	16gg\JJ
*custos:D	*	*	*
!LO:LB:g=original	!	!	!
2D/	4r	.	2ff#X\
.	4D/	.	.
!LO:TX:t=P:problem:kreska pseudotaktowa	!LO:TX:t=P:problem:kreska pseudotaktowa	!	!
2E/	2E/	2g#X/	8r
.	.	.	8ee\
.	.	.	16ee\LL
.	.	.	16ff#\
.	.	.	16ee\
!	!	!	!LO:TX:t=P:problem:kreska pseudotaktowa
!	!	!	!
.	.	.	16dd\JJ
*	*	*	*custos:cc
!	!	!	!LO:LB:g=original
=87-	=87-	=87-	=87-
!	!	!LO:TX:t=P:problem:mixed beam	!
2.A/	2A/	8a/L	2cc#X\
.	.	8ee\J	.
.	.	16ee\LL	.
.	.	16ff\	.
.	.	16ee\	.
!	!	!	!
.	.	16dd\JJ	.
*	*	*custos:cc#	*
!	!	!LO:LB:g=original	!
.	4r	2cc#X\	8r
.	.	.	8aa\
4A/	4A/	.	16aa\LL
.	.	.	16bb-X\
.	.	.	16aa\
!	!	!	!LO:TX:t=P:problem:kreska pseudotaktowa
.	.	.	16gg\JJ
2D/	2D/	8r	2ff#X\
.	.	8dd\L	.
.	.	16dd\L	.
.	.	16ee\	.
.	.	16dd\	.
.	.	16cc#\JJ	.
!LO:TX:t=P:problem:kreska pseudotaktowa	!	!	!
2E/	2E/	8b\L	8r
.	.	8cc#\J	8ee\
!	!	!LO:TX:t=P:problem:kreska pseudotaktowa	!
.	.	4b/	16ee\LL
.	.	.	16ff#\
.	.	.	16ee\
!	!	!	!LO:TX:t=P:problem:kreska pseudotaktowa
.	.	.	16dd\JJ
=88-	=88-	=88-	=88-
!	!	!LO:TX:t=P:problem:mixed beam	!
1A	1A	8a/L	2cc#X\
.	.	8ee\J	.
.	.	16ee\LL	.
.	.	16ff\	.
.	.	16ee\	.
.	.	16dd\JJ	.
.	.	2cc#X\	8r
.	.	.	8ee\
.	.	.	16ee\LL
.	.	.	16ffny\
.	.	.	16ee\
.	.	.	16dd\JJ
2A/	8r	1r	2cc#X\
.	8A/L	.	.
.	16A/L	.	.
.	16B/	.	.
.	16A/	.	.
!	!	!	!
.	16G/JJ	.	.
*	*custos:F#	*	*
!	!LO:LB:g=original	!	!
2D/	2F#X/	.	8r
.	.	.	8aa\
.	.	.	16aa\LL
.	.	.	16bb-X\
.	.	.	16aa\
!	!	!	!LO:TX:t=P:problem:kreska pseudotaktowa
.	.	.	16gg\JJ
=89-	=89-	=89-	=89-
2D/	8r	2r	2ff#X\
.	8d\L	.	.
.	16d\L	.	.
.	16e\	.	.
.	16d\	.	.
.	16c\JJ	.	.
!	!LO:TX:t=P:problem:kreska pseudotaktowa	!	!
2G/	2B\	8r	2r
.	.	8gg\	.
.	.	16gg\LL	.
.	.	16aa\	.
.	.	16gg\	.
!	!	!LO:TX:t=P:problem:kreska pseudotaktowa	!
.	.	16ff\JJ	.
2.c\	2r	2ee\	8r
.	.	.	8gg\
.	.	.	16gg\LL
.	.	.	16aa\
.	.	.	16gg\
.	.	.	16ff#\JJ
!	!	!	!LO:TX:t=P:problem:kreska pseudotaktowa
.	8r	2r	2ee\
.	8c\L	.	.
!LO:TX:t=P:problem:kreska pseudotaktowa	!	!	!
4A/	16c\L	.	.
.	16d\	.	.
.	16c\	.	.
.	16B\JJ	.	.
*	*	*custos:ee	*
!	!	!LO:LB:g=original	!
=90-	=90-	=90-	=90-
!	!LO:TX:t=P:problem:kreska pseudotaktowa	!	!
1A	1A	8r	2r
.	.	8ee\	.
.	.	16ee\LL	.
.	.	16ff\	.
.	.	16ee\	.
.	.	16dd\JJ	.
!	!	!LO:TX:t=P:problem:kreska pseudotaktowa	!
.	.	2cc#X\	8r
.	.	.	8ee\
.	.	.	16ee\LL
.	.	.	16ffny\
.	.	.	16ee\
!	!	!	!LO:TX:t=P:problem:kreska pseudotaktowa
!	!	!	!
.	.	.	16dd\JJ
*	*	*	*custos:cc#
!	!	!	!LO:LB:g=original
2A/	8r	2r	2cc#X\
.	8A/L	.	.
.	16A/L	.	.
.	16B/	.	.
.	16A/	.	.
.	16G/JJ	.	.
!LO:TX:t=P:problem:kreska pseudotaktowa	!	!	!LO:TX:t=P:problem:kreska pseudotaktowa
2D/	8Fny/L	8r	2r
.	8F/	8a/	.
.	16F/L	16a/LL	.
.	16G/	16b/	.
.	16F/	16a/	.
!	!	!LO:TX:t=P:problem:kreska pseudotaktowa	!
.	16E/JJ	16gny/JJ	.
=91-	=91-	=91-	=91-
!	!	!LO:TX:t=P:problem:mixed beam	!
1D	0D	8fny/L	8r
.	.	8ff\J	8aa\
.	.	16ff\LL	16aa\LL
.	.	16gg\	16bb-X\
.	.	16ff\	16aa\
.	.	16ee\JJ	16gg\JJ
!	!	!LO:TX:t=P:problem:kreska pseudotaktowa	!LO:TX:t=P:problem:mixed beam
.	.	2dd\	8ff\L
.	.	.	8a/J
.	.	.	16ff\LL
.	.	.	16gg\
.	.	.	16ff\
!	!	!	!LO:TX:t=P:problem:kreska pseudotaktowa
.	.	.	16ee\JJ
1D	.	2r	2dd\
.	.	[2ff\	(2aa\
=92-	=92-	=92-	=92-
1D	0D	8.ff\L]	8.aa\L
.	.	16gg\Jk	16bb-X\Jk)
.	.	8.ee\L	8.gg\L
!	!	!	!
.	.	16ff\Jk	16aa\Jk
*	*	*custos:dd	*
!	!	!LO:LB:g=original	!
.	.	1dd	1ff
1D	.	.	.
.	.	4cc#X\	2ff\
.	.	4b/	.
=93-	=93-	=93-	=93-
00Al/;;	00Al;;	00cc#Xl;;	00eel;;
==	==	==	==
*-	*-	*-	*-
!!!system-decoration: s1,s2,s3,s4
!!!RDF**kern: i = editorial accidental
!!!RDF**kern: l = terminal long
!!!ENC: Filip Voros
!!!END: 2022-11-05
!!!ENC: Jan Barakat
!!!END: 2022-11-17
!!!YEC: Copyright 2022 Narodowy Instytut Fryderyka Chopina (https://polishscores.org)
!!!YEM: License CC-BY-4.0 (https://creativecommons.org/licenses/by/4.0)
